static/img/chainfusion/benefits-text.svg

<svg width="302" height="182" viewBox="0 0 302 182" fill="none" xmlns="http://www.w3.org/2000/svg">
<path d="M62.8457 24.1523H78.5781C77.6113 37.4531 65.9512 41.4375 51.7715 41.4375C37.0059 41.4082 24.8184 37.1309 24.877 22.2188V19.3477C24.8184 4.46484 37.0059 0.1875 51.7715 0.128906C65.9512 0.158203 77.6113 4.14258 78.5781 17.4141H62.8457C61.4102 13.5469 57.0449 12.6387 51.7715 12.6387C45.502 12.7266 40.1699 13.8398 40.2578 20.3145V21.2812C40.1699 27.6973 45.502 28.8691 51.7715 28.957C57.0449 28.957 61.4395 28.0195 62.8457 24.1523ZM121.586 27.0234H98.5293V40.4707H83.1777V1.0957H98.5293V14.543H121.586V1.0957H136.967V40.4707H121.586V27.0234ZM168.402 12.5508L162.982 24.1816H173.793L168.402 12.5508ZM138.139 40.5293L159.262 1.1543H177.514L198.637 40.5293H181.352L178.246 33.791H158.529L155.424 40.5293H138.139ZM199.838 1.0957H215.189V40.4707H199.838V1.0957ZM261.742 21.9551V1.0957H277.123V40.4707H259.838L238.686 16.418V40.4707H223.334V1.0957H244.457L261.742 21.9551ZM0.882812 110.529V71.1543H48.9004V83.6348H16.2344V88.4395H45.0625V99.9531H16.2344V110.529H0.882812ZM91.791 91.2812V71.0957H107.172V92.248C107.23 107.131 95.043 111.408 80.2773 111.438C65.5117 111.408 53.3242 107.131 53.3828 92.248V71.0957H68.7344V91.2812C68.6758 97.7559 73.9785 98.8691 80.2773 98.957C86.5469 98.8691 91.8789 97.7559 91.791 91.2812ZM127.65 84.0742C127.65 85.8027 132.426 86.0371 138.607 86.3301C149.594 86.8867 165.033 87.6484 165.004 97.5215C165.004 108.771 152.113 111.438 138.285 111.438C124.486 111.408 113.031 109.738 111.566 97.5215H127.65C129.408 100.568 133.48 101.359 138.285 101.359C143.061 101.359 148.92 100.568 148.92 97.5215C148.92 95.793 144.145 95.5293 137.963 95.2363C126.977 94.6797 111.537 93.918 111.566 84.0742C111.566 72.8242 124.457 70.1289 138.285 70.1289C152.084 70.2168 163.539 71.7695 165.004 84.0742H148.92C147.162 80.9688 143.09 80.2363 138.285 80.2363C133.51 80.2363 127.65 80.9395 127.65 84.0742ZM169.105 71.0957H184.457V110.471H169.105V71.0957ZM215.863 70.1289C230.688 70.1289 242.729 74.4648 242.729 89.3477V92.2188C242.787 107.102 230.658 111.408 215.863 111.438C201.039 111.408 188.91 107.102 188.969 92.2188V89.3477C188.91 74.4355 201.039 70.1582 215.863 70.1289ZM227.377 91.252V90.2852C227.465 83.8691 222.133 82.6973 215.863 82.6094C209.564 82.6973 204.232 83.8691 204.32 90.2852V91.252C204.232 97.6973 209.564 98.8691 215.863 98.957C222.133 98.8691 227.465 97.6973 227.377 91.252ZM285.736 91.9551V71.0957H301.117V110.471H283.832L262.68 86.418V110.471H247.328V71.0957H268.451L285.736 91.9551ZM41.5757 137.96H56.8757C65.1557 137.96 69.8357 142.82 69.8357 149.42C69.8357 153.8 67.1957 157.34 63.6557 158.54C67.7957 159.56 71.1557 163.34 71.1557 168.62C71.1557 175.52 65.9957 180.5 58.0157 180.5H41.5757V137.96ZM49.7357 155.54H55.6157C59.3957 155.54 61.6757 153.44 61.6757 150.2C61.6757 146.96 59.5757 144.92 55.5557 144.92H49.7357V155.54ZM49.7357 173.6H56.4557C60.4757 173.6 62.8757 171.5 62.8757 168.08C62.8757 164.72 60.7157 162.38 56.5757 162.38H49.7357V173.6ZM84.1827 162.38H97.3827C97.2627 159.44 95.3427 156.56 90.7827 156.56C86.6427 156.56 84.3627 159.68 84.1827 162.38ZM98.1627 170.06L104.823 172.04C103.323 177.14 98.6427 181.4 91.3827 181.4C83.2827 181.4 76.1427 175.58 76.1427 165.62C76.1427 156.2 83.1027 150.08 90.6627 150.08C99.7827 150.08 105.243 155.9 105.243 165.38C105.243 166.52 105.123 167.72 105.123 167.84H84.0027C84.1827 171.74 87.4827 174.56 91.4427 174.56C95.1627 174.56 97.2027 172.7 98.1627 170.06ZM119.671 163.52V180.5H111.691V150.98H119.431V154.64C121.231 151.58 124.771 150.2 127.951 150.2C135.271 150.2 138.631 155.42 138.631 161.9V180.5H130.651V163.28C130.651 159.98 129.031 157.4 125.191 157.4C121.711 157.4 119.671 160.1 119.671 163.52ZM152.796 162.38H165.996C165.876 159.44 163.956 156.56 159.396 156.56C155.256 156.56 152.976 159.68 152.796 162.38ZM166.776 170.06L173.436 172.04C171.936 177.14 167.256 181.4 159.996 181.4C151.896 181.4 144.756 175.58 144.756 165.62C144.756 156.2 151.716 150.08 159.276 150.08C168.396 150.08 173.856 155.9 173.856 165.38C173.856 166.52 173.736 167.72 173.736 167.84H152.616C152.796 171.74 156.096 174.56 160.056 174.56C163.776 174.56 165.816 172.7 166.776 170.06ZM202.394 157.82H190.574V180.5H182.534V157.82H177.614V150.98H182.534V147.62C182.534 140.96 186.734 136.64 193.274 136.64C194.954 136.64 196.574 136.94 197.234 137.24V143.96C196.814 143.84 196.034 143.66 194.714 143.66C192.974 143.66 190.574 144.44 190.574 147.74V150.98H210.314V180.5H202.394V157.82ZM201.434 141.26C201.434 138.5 203.654 136.28 206.354 136.28C209.054 136.28 211.274 138.5 211.274 141.26C211.274 143.96 209.054 146.12 206.354 146.12C203.654 146.12 201.434 143.96 201.434 141.26ZM228.888 142.16V150.98H234.828V158.06H228.888V170.42C228.888 173 230.088 173.84 232.368 173.84C233.328 173.84 234.408 173.72 234.828 173.6V180.2C234.108 180.5 232.668 180.92 230.328 180.92C224.568 180.92 220.968 177.5 220.968 171.8V158.06H215.628V150.98H217.128C220.248 150.98 221.688 148.94 221.688 146.3V142.16H228.888ZM239.262 172.28L246.102 170.78C246.282 173.12 248.022 175.28 251.502 175.28C254.142 175.28 255.402 173.9 255.402 172.34C255.402 171.02 254.502 169.94 252.222 169.46L248.322 168.56C242.622 167.3 240.042 163.88 240.042 159.74C240.042 154.46 244.722 150.08 251.082 150.08C259.482 150.08 262.302 155.42 262.662 158.6L256.002 160.1C255.762 158.36 254.502 156.14 251.142 156.14C249.042 156.14 247.362 157.4 247.362 159.08C247.362 160.52 248.442 161.42 250.062 161.72L254.262 162.62C260.082 163.82 263.022 167.36 263.022 171.68C263.022 176.48 259.302 181.4 251.562 181.4C242.682 181.4 239.622 175.64 239.262 172.28Z" fill="black"/>
</svg>

<svg xmlns="http://www.w3.org/2000/svg" width="302" height="182" fill="none" viewBox="0 0 302 182"><path fill="#000" d="M62.846 24.152h15.732c-.967 13.301-12.627 17.285-26.806 17.285-14.766-.029-26.954-4.306-26.895-19.218v-2.871C24.818 4.465 37.006.188 51.772.128c14.18.03 25.84 4.015 26.806 17.286H62.846c-1.436-3.867-5.801-4.775-11.074-4.775-6.27.088-11.602 1.2-11.514 7.675v.967c-.088 6.416 5.244 7.588 11.514 7.676 5.273 0 9.668-.938 11.074-4.805Zm58.74 2.871H98.529v13.448H83.178V1.096h15.351v13.447h23.057V1.096h15.381V40.47h-15.381V27.023Zm46.816-14.472-5.42 11.63h10.811l-5.391-11.63Zm-30.263 27.978 21.123-39.375h18.252l21.123 39.375h-17.285l-3.106-6.738h-19.717l-3.105 6.738h-17.285Zm61.699-39.433h15.351V40.47h-15.351V1.096Zm61.904 20.86V1.095h15.381V40.47h-17.285l-21.152-24.053v24.053h-15.352V1.096h21.123l17.285 20.86ZM.882 110.528V71.154H48.9v12.48H16.234v4.805h28.828v11.514H16.235v10.576H.883Zm90.909-19.248V71.096h15.381v21.152c.058 14.883-12.129 19.16-26.895 19.19-14.765-.03-26.953-4.307-26.894-19.19V71.096h15.351V91.28c-.058 6.475 5.245 7.588 11.543 7.676 6.27-.088 11.602-1.201 11.514-7.676Zm35.859-7.207c0 1.729 4.776 1.963 10.957 2.256 10.987.557 26.426 1.318 26.397 11.192 0 11.249-12.891 13.916-26.719 13.916-13.799-.03-25.254-1.7-26.719-13.916h16.084c1.758 3.046 5.83 3.837 10.635 3.837 4.776 0 10.635-.791 10.635-3.837 0-1.729-4.775-1.993-10.957-2.286-10.986-.556-26.426-1.318-26.397-11.162 0-11.25 12.891-13.945 26.719-13.945 13.799.088 25.254 1.64 26.719 13.945H148.92c-1.758-3.105-5.83-3.838-10.635-3.838-4.775 0-10.635.703-10.635 3.838Zm41.455-12.978h15.352v39.375h-15.352V71.096Zm46.758-.967c14.825 0 26.866 4.336 26.866 19.219v2.87c.058 14.884-12.071 19.19-26.866 19.22-14.824-.03-26.953-4.336-26.894-19.22v-2.87c-.059-14.912 12.07-19.19 26.894-19.22Zm11.514 21.123v-.967c.088-6.416-5.244-7.588-11.514-7.676-6.299.088-11.631 1.26-11.543 7.676v.967c-.088 6.445 5.244 7.617 11.543 7.705 6.27-.088 11.602-1.26 11.514-7.705Zm58.359.703v-20.86h15.381v39.376h-17.285L262.68 86.418v24.053h-15.352V71.096h21.123l17.285 20.86ZM41.576 137.96h15.3c8.28 0 12.96 4.86 12.96 11.46 0 4.38-2.64 7.92-6.18 9.12 4.14 1.02 7.5 4.8 7.5 10.08 0 6.9-5.16 11.88-13.14 11.88h-16.44v-42.54Zm8.16 17.58h5.88c3.78 0 6.06-2.1 6.06-5.34 0-3.24-2.1-5.28-6.12-5.28h-5.82v10.62Zm0 18.06h6.72c4.02 0 6.42-2.1 6.42-5.52 0-3.36-2.16-5.7-6.3-5.7h-6.84v11.22Zm34.447-11.22h13.2c-.12-2.94-2.04-5.82-6.6-5.82-4.14 0-6.42 3.12-6.6 5.82Zm13.98 7.68 6.66 1.98c-1.5 5.1-6.18 9.36-13.44 9.36-8.1 0-15.24-5.82-15.24-15.78 0-9.42 6.96-15.54 14.52-15.54 9.12 0 14.58 5.82 14.58 15.3 0 1.14-.12 2.34-.12 2.46h-21.12c.18 3.9 3.48 6.72 7.44 6.72 3.72 0 5.76-1.86 6.72-4.5Zm21.508-6.54v16.98h-7.98v-29.52h7.74v3.66c1.8-3.06 5.34-4.44 8.52-4.44 7.32 0 10.68 5.22 10.68 11.7v18.6h-7.98v-17.22c0-3.3-1.62-5.88-5.46-5.88-3.48 0-5.52 2.7-5.52 6.12Zm33.125-1.14h13.2c-.12-2.94-2.04-5.82-6.6-5.82-4.14 0-6.42 3.12-6.6 5.82Zm13.98 7.68 6.66 1.98c-1.5 5.1-6.18 9.36-13.44 9.36-8.1 0-15.24-5.82-15.24-15.78 0-9.42 6.96-15.54 14.52-15.54 9.12 0 14.58 5.82 14.58 15.3 0 1.14-.12 2.34-.12 2.46h-21.12c.18 3.9 3.48 6.72 7.44 6.72 3.72 0 5.76-1.86 6.72-4.5Zm35.618-12.24h-11.82v22.68h-8.04v-22.68h-4.92v-6.84h4.92v-3.36c0-6.66 4.2-10.98 10.74-10.98 1.68 0 3.3.3 3.96.6v6.72c-.42-.12-1.2-.3-2.52-.3-1.74 0-4.14.78-4.14 4.08v3.24h19.74v29.52h-7.92v-22.68Zm-.96-16.56c0-2.76 2.22-4.98 4.92-4.98 2.7 0 4.92 2.22 4.92 4.98 0 2.7-2.22 4.86-4.92 4.86-2.7 0-4.92-2.16-4.92-4.86Zm27.454.9v8.82h5.94v7.08h-5.94v12.36c0 2.58 1.2 3.42 3.48 3.42.96 0 2.04-.12 2.46-.24v6.6c-.72.3-2.16.72-4.5.72-5.76 0-9.36-3.42-9.36-9.12v-13.74h-5.34v-7.08h1.5c3.12 0 4.56-2.04 4.56-4.68v-4.14h7.2Zm10.374 30.12 6.84-1.5c.18 2.34 1.92 4.5 5.4 4.5 2.64 0 3.9-1.38 3.9-2.94 0-1.32-.9-2.4-3.18-2.88l-3.9-.9c-5.7-1.26-8.28-4.68-8.28-8.82 0-5.28 4.68-9.66 11.04-9.66 8.4 0 11.22 5.34 11.58 8.52l-6.66 1.5c-.24-1.74-1.5-3.96-4.86-3.96-2.1 0-3.78 1.26-3.78 2.94 0 1.44 1.08 2.34 2.7 2.64l4.2.9c5.82 1.2 8.76 4.74 8.76 9.06 0 4.8-3.72 9.72-11.46 9.72-8.88 0-11.94-5.76-12.3-9.12Z"/></svg>
